img/reg-2.svg

<svg width="110" height="104" viewBox="0 0 110 104" fill="none" xmlns="http://www.w3.org/2000/svg">
<ellipse cx="54.5" cy="51.9995" rx="43.5" ry="41" fill="#5CB3FF"/>
<path opacity="0.4" d="M55 103C84.7677 103 109 80.2201 109 51.9995C109 23.7789 84.7677 0.999512 55 0.999512C25.2323 0.999512 1 23.7789 1 51.9995C1 80.2201 25.2323 103 55 103Z" stroke="#6C8CD0" stroke-width="2"/>
<path d="M57.0474 69.1896H45.6825C45.1801 69.1896 44.6983 68.9895 44.3431 68.6333C43.9879 68.2771 43.7883 67.7939 43.7883 67.2901V40.6979C43.7883 40.1941 43.9879 39.711 44.3431 39.3547C44.6983 38.9985 45.1801 38.7984 45.6825 38.7984H55.1533V44.4968C55.1533 46.0081 55.752 47.4575 56.8176 48.5261C57.8833 49.5947 59.3287 50.1951 60.8357 50.1951H66.5182V59.6924C66.5182 60.1961 66.7178 60.6793 67.073 61.0355C67.4282 61.3917 67.91 61.5918 68.4124 61.5918C68.9147 61.5918 69.3965 61.3917 69.7518 61.0355C70.107 60.6793 70.3065 60.1961 70.3065 59.6924V48.2957V48.1817C70.2868 48.0072 70.2487 47.8353 70.1929 47.6688V47.4979C70.1018 47.3026 69.9803 47.1231 69.833 46.966L58.468 35.5693C58.3115 35.4216 58.1324 35.2998 57.9377 35.2085C57.875 35.1975 57.8109 35.1975 57.7483 35.2085C57.5641 35.1097 57.3661 35.0393 57.1611 34.9995H45.6825C44.1754 34.9995 42.73 35.5999 41.6644 36.6685C40.5987 37.7372 40 39.1866 40 40.6979V67.2901C40 68.8014 40.5987 70.2508 41.6644 71.3195C42.73 72.3881 44.1754 72.9885 45.6825 72.9885H57.0474C57.5498 72.9885 58.0316 72.7884 58.3868 72.4322C58.742 72.0759 58.9416 71.5928 58.9416 71.0891C58.9416 70.5853 58.742 70.1021 58.3868 69.7459C58.0316 69.3897 57.5498 69.1896 57.0474 69.1896ZM58.9416 41.4766L63.8475 46.3962H60.8357C60.3334 46.3962 59.8516 46.1961 59.4964 45.8399C59.1412 45.4837 58.9416 45.0005 58.9416 44.4968V41.4766ZM49.4708 57.7929H60.8357C61.3381 57.7929 61.8199 57.5928 62.1751 57.2366C62.5303 56.8804 62.7299 56.3972 62.7299 55.8935C62.7299 55.3897 62.5303 54.9066 62.1751 54.5503C61.8199 54.1941 61.3381 53.994 60.8357 53.994H49.4708C48.9684 53.994 48.4866 54.1941 48.1314 54.5503C47.7762 54.9066 47.5766 55.3897 47.5766 55.8935C47.5766 56.3972 47.7762 56.8804 48.1314 57.2366C48.4866 57.5928 48.9684 57.7929 49.4708 57.7929ZM57.0474 61.5918H49.4708C48.9684 61.5918 48.4866 61.7919 48.1314 62.1481C47.7762 62.5044 47.5766 62.9875 47.5766 63.4913C47.5766 63.995 47.7762 64.4782 48.1314 64.8344C48.4866 65.1906 48.9684 65.3907 49.4708 65.3907H57.0474C57.5498 65.3907 58.0316 65.1906 58.3868 64.8344C58.742 64.4782 58.9416 63.995 58.9416 63.4913C58.9416 62.9875 58.742 62.5044 58.3868 62.1481C58.0316 61.7919 57.5498 61.5918 57.0474 61.5918ZM49.4708 50.1951H51.365C51.8673 50.1951 52.3491 49.995 52.7043 49.6388C53.0595 49.2826 53.2591 48.7994 53.2591 48.2957C53.2591 47.7919 53.0595 47.3088 52.7043 46.9525C52.3491 46.5963 51.8673 46.3962 51.365 46.3962H49.4708C48.9684 46.3962 48.4866 46.5963 48.1314 46.9525C47.7762 47.3088 47.5766 47.7919 47.5766 48.2957C47.5766 48.7994 47.7762 49.2826 48.1314 49.6388C48.4866 49.995 48.9684 50.1951 49.4708 50.1951ZM75.4397 62.1426C75.2636 61.9646 75.0541 61.8233 74.8233 61.7269C74.5925 61.6304 74.3449 61.5808 74.0949 61.5808C73.8448 61.5808 73.5972 61.6304 73.3664 61.7269C73.1356 61.8233 72.9261 61.9646 72.75 62.1426L66.5182 68.4108L64.0748 65.9415C63.8981 65.7644 63.6885 65.624 63.4577 65.5281C63.227 65.4323 62.9797 65.3829 62.7299 65.3829C62.4801 65.3829 62.2328 65.4323 62.0021 65.5281C61.7713 65.624 61.5617 65.7644 61.3851 65.9415C61.2084 66.1186 61.0683 66.3289 60.9728 66.5603C60.8772 66.7917 60.828 67.0397 60.828 67.2901C60.828 67.5406 60.8772 67.7886 60.9728 68.02C61.0683 68.2514 61.2084 68.4617 61.3851 68.6388L65.1734 72.4377C65.3495 72.6157 65.559 72.757 65.7898 72.8534C66.0206 72.9499 66.2682 72.9995 66.5182 72.9995C66.7683 72.9995 67.0159 72.9499 67.2467 72.8534C67.4775 72.757 67.687 72.6157 67.8631 72.4377L75.4397 64.8399C75.6172 64.6633 75.7582 64.4532 75.8543 64.2217C75.9505 63.9903 76 63.742 76 63.4913C76 63.2405 75.9505 62.9922 75.8543 62.7608C75.7582 62.5293 75.6172 62.3192 75.4397 62.1426Z" fill="#051761"/>
</svg>

<svg width="110" height="104" fill="none" xmlns="http://www.w3.org/2000/svg"><ellipse cx="54.5" cy="51.999" rx="43.5" ry="41" fill="#5CB3FF"/><path opacity=".4" d="M55 103c29.768 0 54-22.78 54-51 0-28.221-24.232-51-54-51S1 23.779 1 52c0 28.22 24.232 51 54 51z" stroke="#6C8CD0" stroke-width="2"/><path d="M57.047 69.19H45.683c-.503 0-.985-.2-1.34-.557a1.902 1.902 0 0 1-.555-1.343V40.698c0-.504.2-.987.555-1.343a1.891 1.891 0 0 1 1.34-.557h9.47v5.699c0 1.511.599 2.96 1.665 4.03a5.675 5.675 0 0 0 4.018 1.668h5.682v9.497c0 .504.2.987.555 1.343a1.891 1.891 0 0 0 3.234-1.343V48.182a2.495 2.495 0 0 0-.114-.513v-.171a2.036 2.036 0 0 0-.36-.532L58.468 35.569a2.026 2.026 0 0 0-.53-.36.548.548 0 0 0-.19 0 2.082 2.082 0 0 0-.587-.21H45.682c-1.507 0-2.952.6-4.018 1.67A5.707 5.707 0 0 0 40 40.698V67.29c0 1.511.599 2.96 1.664 4.03a5.674 5.674 0 0 0 4.018 1.669h11.365c.503 0 .985-.2 1.34-.557a1.902 1.902 0 0 0 0-2.686 1.891 1.891 0 0 0-1.34-.556zm1.895-27.713 4.905 4.92h-3.011c-.503 0-.984-.2-1.34-.557a1.902 1.902 0 0 1-.554-1.343v-3.02zM49.47 57.793h11.365c.502 0 .984-.2 1.34-.556a1.902 1.902 0 0 0-1.34-3.243H49.47c-.503 0-.984.2-1.34.556a1.903 1.903 0 0 0 0 2.687c.356.356.837.556 1.34.556zm7.576 3.799h-7.576c-.503 0-.984.2-1.34.556a1.903 1.903 0 0 0 0 2.686c.356.357.837.557 1.34.557h7.576c.503 0 .985-.2 1.34-.557a1.902 1.902 0 0 0-1.34-3.242zm-7.576-11.397h1.894c.502 0 .984-.2 1.34-.556a1.902 1.902 0 0 0-1.34-3.243h-1.894c-.503 0-.984.2-1.34.556a1.903 1.903 0 0 0 0 2.687c.356.356.837.556 1.34.556zM75.44 62.143a1.894 1.894 0 0 0-2.69 0l-6.232 6.268-2.443-2.47a1.903 1.903 0 0 0-2.073-.413 1.902 1.902 0 0 0-1.174 1.762 1.912 1.912 0 0 0 .557 1.349l3.788 3.799a1.894 1.894 0 0 0 2.69 0l7.577-7.598a1.9 1.9 0 0 0 .414-2.08 1.9 1.9 0 0 0-.414-.617z" fill="#051761"/></svg>
